X:445
T:Inveresk March 
C:Joe Buchanan's Scottish Tome - Page 061.3
I:061 3
R:March
Z:Carl Allison
L:1/8
M:4/4
K:F
"C7"C2 |"F" F2 GA "Gm"B2 d<e | "Dm"f2 e"F7"c "Bb"d2 "C7"c>B | "F"A2 "Bb"Bd "Am"cA"Dm"FA | "G"G2 c>d "C7"c2 de |
|"Dm" f2 "F7"ec "Bb"d2 "F7"cA |"Bb" B>AGF "Bb"D>E"B"FD | "F"C>D"Dm"FG "Gm"A2 G"C7"E | "F" F2 "Bb"F>G "F"F2 :|
"F7"c2 |"Bb" d2 Bd "Bb"f2 "C7"ed | "Am"c2 "C7"B>c "F"A2 "A7"A>G |"Dm" F2 GA "Gm"B2 de |"G7" f2 de "C"c2 "F7"c2 |
| "Bb"d2 Bd f2 "B"ed |"F" c2 "C7"B>c "F"A2 "A7"A>G | "Dm"F2 A2 "Gm"Bd"C7"cE |"F" F2 "Bb"F>G "F"F2 :|

